svg/grade_a.svg

<svg width="24" height="24" viewBox="0 0 24 24" xmlns="http://www.w3.org/2000/svg">
<path d="M12 8.53L10.71 12.86H13.32L12 8.53Z" />
<path d="M12 2C10.0222 2 8.08879 2.58649 6.4443 3.6853C4.79981 4.78412 3.51809 6.3459 2.76121 8.17317C2.00433 10.0004 1.8063 12.0111 2.19215 13.9509C2.578 15.8907 3.53041 17.6725 4.92894 19.0711C6.32746 20.4696 8.10929 21.422 10.0491 21.8079C11.9889 22.1937 13.9996 21.9957 15.8268 21.2388C17.6541 20.4819 19.2159 19.2002 20.3147 17.5557C21.4135 15.9112 22 13.9778 22 12C22 10.6868 21.7413 9.38642 21.2388 8.17317C20.7363 6.95991 19.9997 5.85752 19.0711 4.92893C18.1425 4.00035 17.0401 3.26375 15.8268 2.7612C14.6136 2.25866 13.3132 2 12 2ZM14.55 17L13.82 14.62H10.18L9.45 17H7.17L10.7 7H13.29L16.83 17H14.55Z" />
</svg>

<svg width="24" height="24" viewBox="0 0 24 24" xmlns="http://www.w3.org/2000/svg"><path d="M12 8.53l-1.29 4.33h2.61L12 8.53z"/><path d="M12 2a10 10 0 1 0 0 20 10 10 0 0 0 0-20zm2.55 15l-.73-2.38h-3.64L9.45 17H7.17L10.7 7h2.59l3.54 10h-2.28z"/></svg>
